build/img/icons/phone.svg

<svg width="20" height="20" viewBox="0 0 20 20" fill="none" xmlns="http://www.w3.org/2000/svg">
<path d="M19 10C19.5523 10 20.0052 9.55118 19.95 9.00166C19.8526 8.03093 19.6135 7.07785 19.2388 6.1731C18.7362 4.95996 17.9997 3.85742 17.0711 2.92896C16.1425 2.00024 15.0401 1.26367 13.8268 0.76123C12.9222 0.386403 11.9691 0.147317 10.9983 0.0499421C10.4488 -0.00518044 10 0.447715 10 1C10 1.55228 10.4494 1.99357 10.9974 2.06244C11.7053 2.15141 12.3996 2.33485 13.0615 2.60889C14.0321 3.01099 14.914 3.60034 15.6569 4.34326C16.3997 5.08594 16.989 5.96802 17.391 6.93848C17.6652 7.60043 17.8486 8.29474 17.9376 9.00259C18.0064 9.55057 18.4477 10 19 10Z" fill="#FDAB1E"/>
<path d="M0 8V3C0 2.44775 0.447723 2 1 2H6C6.55228 2 7 2.44775 7 3V7C7 7.55225 6.55228 8 6 8C4.89543 8 3.97435 8.90934 4.24686 9.97976C4.96671 12.8073 7.19267 15.0333 10.0202 15.7531C11.0907 16.0257 12 15.1046 12 14C12 13.4478 12.4477 13 13 13H17C17.5523 13 18 13.4478 18 14V19C18 19.5522 17.5523 20 17 20H12C5.37259 20 0 14.6274 0 8Z" fill="#FDAB1E"/>
<path d="M15.5433 7.70386C15.7297 8.15391 15.8602 8.62394 15.9326 9.10337C16.0069 9.59484 15.5971 10 15.1 10C14.603 10 14.2097 9.59256 14.1039 9.10687C14.0509 8.86325 13.9762 8.62426 13.8803 8.39282C13.6692 7.88306 13.3599 7.42017 12.9698 7.03027C12.5798 6.64014 12.1169 6.33081 11.6073 6.11963C11.3758 6.02381 11.1368 5.9491 10.8932 5.8961C10.4075 5.79042 10 5.39709 10 4.90002C10 4.40295 10.4052 3.9931 10.8967 4.0674C11.3761 4.13989 11.8461 4.27039 12.2961 4.45679C13.024 4.7583 13.6855 5.2002 14.2426 5.75732C14.7998 6.31445 15.2418 6.97583 15.5433 7.70386Z" fill="#FDAB1E"/>
</svg>

<svg width="20" height="20" viewBox="0 0 20 20" fill="none" xmlns="http://www.w3.org/2000/svg">
    <path d="M19 10c.552 0 1.005-.449.95-.998A10.002 10.002 0 0 0 10.998.05C10.448-.005 10 .448 10 1c0 .552.45.994.997 1.062a8.006 8.006 0 0 1 4.66 2.281 8 8 0 0 1 2.28 4.66c.07.548.51.997 1.063.997zM0 8V3a1 1 0 0 1 1-1h5a1 1 0 0 1 1 1v4a1 1 0 0 1-1 1c-1.105 0-2.026.91-1.753 1.98a8.014 8.014 0 0 0 5.773 5.773C11.09 16.026 12 15.105 12 14a1 1 0 0 1 1-1h4a1 1 0 0 1 1 1v5a1 1 0 0 1-1 1h-5C5.373 20 0 14.627 0 8z" fill="#FDAB1E"/>
    <path d="M15.543 7.704c.187.45.317.92.39 1.4.074.49-.336.896-.833.896-.497 0-.89-.407-.996-.893a4.195 4.195 0 0 0-2.497-2.987 4.204 4.204 0 0 0-.714-.224C10.407 5.79 10 5.397 10 4.9s.405-.907.897-.833a6.001 6.001 0 0 1 4.646 3.637z" fill="#FDAB1E"/>
</svg>
